dist/assets/images/ico_star.svg

<svg width="12" height="12" viewBox="0 0 12 12" fill="none" xmlns="http://www.w3.org/2000/svg">
<path d="M9.55008 7.46476C9.3947 7.62328 9.32331 7.85253 9.3587 8.07736L9.89203 11.1845C9.93703 11.4479 9.83144 11.7144 9.62207 11.8666C9.4169 12.0245 9.14393 12.0434 8.92016 11.9171L6.26311 10.4582C6.17072 10.4065 6.06813 10.3787 5.96315 10.3755H5.80057C5.74418 10.3844 5.68898 10.4033 5.63859 10.4324L2.98094 11.8982C2.84955 11.9676 2.70077 11.9923 2.55499 11.9676C2.19984 11.8969 1.96287 11.5407 2.02106 11.1649L2.55499 8.05778C2.59039 7.83106 2.519 7.60054 2.36362 7.4395L0.1973 5.22912C0.0161234 5.04408 -0.0468684 4.76621 0.0359208 4.51549C0.11631 4.2654 0.321483 4.08289 0.569251 4.04184L3.55086 3.5865C3.77763 3.56187 3.97681 3.41661 4.07879 3.20189L5.39262 0.366291C5.42382 0.303138 5.46401 0.245036 5.51261 0.195776L5.5666 0.151569C5.59479 0.118729 5.62719 0.0915728 5.66319 0.069469L5.72858 0.0442076L5.83056 0H6.08313C6.3087 0.0246299 6.50728 0.166726 6.61106 0.378922L7.94229 3.20189C8.03828 3.4084 8.22485 3.55176 8.44022 3.5865L11.4218 4.04184C11.6738 4.07973 11.8844 4.26287 11.9678 4.51549C12.0464 4.76873 11.9786 5.04661 11.7938 5.22912L9.55008 7.46476Z" fill="white"/>
</svg>

<svg width="12" height="12" fill="none" xmlns="http://www.w3.org/2000/svg"><path d="M9.55 7.465a.718.718 0 00-.191.612l.533 3.107a.699.699 0 01-.27.683.633.633 0 01-.702.05l-2.657-1.459a.654.654 0 00-.3-.082h-.162a.47.47 0 00-.162.056L2.98 11.898a.67.67 0 01-.426.07c-.355-.071-.592-.427-.534-.803l.534-3.107a.73.73 0 00-.191-.619L.197 5.23a.707.707 0 01-.161-.714.684.684 0 01.533-.473l2.982-.455a.669.669 0 00.528-.385L5.393.366a.656.656 0 01.12-.17l.054-.044a.407.407 0 01.096-.083L5.73.044 5.83 0h.252a.672.672 0 01.528.379l1.331 2.823a.67.67 0 00.498.385l2.982.455a.69.69 0 01.546.473.71.71 0 01-.174.714L9.55 7.465z" fill="#fff"/></svg>
